cssgg/border-style-dotted.svg

<svg viewBox="0 0 24 24" xmlns="http://www.w3.org/2000/svg"><g><path d="M3 11H1v2h2v-2Z"/><path d="M7 11H5v2h2v-2Z"/><path d="M9 11h2v2H9v-2Z"/><path d="M15 11h-2v2h2v-2Z"/><path d="M17 11h2v2h-2v-2Z"/><path d="M23 11h-2v2h2v-2Z"/></g></svg>

<svg
  width="24"
  height="24"
  viewBox="0 0 24 24"
  fill="none"
  xmlns="http://www.w3.org/2000/svg"
>
  <path d="M3 11H1V13H3V11Z" fill="currentColor" />
  <path d="M7 11H5V13H7V11Z" fill="currentColor" />
  <path d="M9 11H11V13H9V11Z" fill="currentColor" />
  <path d="M15 11H13V13H15V11Z" fill="currentColor" />
  <path d="M17 11H19V13H17V11Z" fill="currentColor" />
  <path d="M23 11H21V13H23V11Z" fill="currentColor" />
</svg>
